imgs/Tower.svg

<?xml version="1.0" encoding="UTF-8" standalone="no"?>
<!-- Created with Vectornator (http://vectornator.io/) -->

<svg
   height="100%"
   stroke-miterlimit="10"
   style="fill-rule:nonzero;clip-rule:evenodd;stroke-linecap:round;stroke-linejoin:round;"
   version="1.1"
   viewBox="0 0 841.995 595.35"
   width="100%"
   xml:space="preserve"
   id="svg132"
   sodipodi:docname="Tower.svg"
   inkscape:version="1.2 (dc2aedaf03, 2022-05-15)"
   xmlns:inkscape="http://www.inkscape.org/namespaces/inkscape"
   xmlns:sodipodi="http://sodipodi.sourceforge.net/DTD/sodipodi-0.dtd"
   xmlns="http://www.w3.org/2000/svg"
   xmlns:svg="http://www.w3.org/2000/svg"
   xmlns:vectornator="http://vectornator.io"><sodipodi:namedview
   id="namedview134"
   pagecolor="#ffffff"
   bordercolor="#000000"
   borderopacity="0.25"
   inkscape:showpageshadow="2"
   inkscape:pageopacity="0.0"
   inkscape:pagecheckerboard="0"
   inkscape:deskcolor="#d1d1d1"
   showgrid="false"
   inkscape:zoom="1.4730831"
   inkscape:cx="249.13734"
   inkscape:cy="298.35385"
   inkscape:window-width="1920"
   inkscape:window-height="1131"
   inkscape:window-x="0"
   inkscape:window-y="0"
   inkscape:window-maximized="1"
   inkscape:current-layer="svg132" />
<defs
   id="defs99" />
<g
   id="Layer-1"
   vectornator:layerName="Layer 1"
   transform="matrix(0.98597686,0,0.0296178,0.99810272,-8.1649186,1.0649776)"
   inkscape:export-filename="Tower-white.png"
   inkscape:export-xdpi="96"
   inkscape:export-ydpi="96"
   style="fill:#ffffff;fill-opacity:1">
<path
   d="m 69.7838,554.839 c 0.9264,-1.088 1.2382,1.174 3.2123,0.892 2.379,-0.339 4.8494,-1.735 7.1385,-2.498 5.0513,-1.684 10.83,-2.022 16.0616,-0.714 4.2928,1.073 10.4298,-0.727 14.6338,-1.428 9.207,-1.534 19.518,-0.736 28.554,1.071 2.606,0.521 5.228,2.124 7.852,2.499 17.955,2.565 36.145,-4.744 53.896,-1.785 4.916,0.819 10.054,1.319 14.991,2.142 4.897,0.816 10.121,-0.455 14.991,0.356 2.068,0.345 3.008,2.234 4.64,3.213 3.394,2.036 6.057,-1.305 8.566,-2.142 1.623,-0.541 -0.344,1.776 1.785,0.357 0.197,-0.132 0.057,-0.483 0,-0.714 -0.431,-1.72 -1.814,-0.8 -2.142,-1.784 -0.251,-0.754 0.391,-5.9 0,-7.853 -1.193,-5.965 -2.84,-14.261 -7.495,-18.917 -3.389,-3.388 -8.809,-5.32 -11.779,-9.28 -1.54,-2.054 -2.553,-4.694 -4.283,-6.424 -6.81,-6.81 -14.799,-4.668 -23.2,-6.068 -5.265,-0.878 -10.437,-2.817 -15.705,-3.569 -9.265,-1.324 -18.497,2.57 -27.483,3.569 -6.63,0.737 -13.95,0.367 -20.345,2.498 -8.859,2.954 -15.587,8.296 -23.557,12.85 -7.789,4.45 -15.4076,9.685 -22.486,15.347 -4.4822,3.586 -9.8309,6.619 -13.92,10.708 -0.1296,0.13 -6.0224,10.136 -3.9262,7.674 z"
   fill="none"
   fill-rule="evenodd"
   opacity="1"
   stroke="#000000"
   stroke-linecap="round"
   stroke-linejoin="round"
   stroke-width="1"
   id="path101"
   style="fill:#ffffff;fill-opacity:1" />
<path
   d="m 136.886,505.405 c -0.546,0.273 -1.48,1.512 -2.142,1.071 -1.294,-0.863 -1.274,-15.663 -1.071,-17.489 2.253,-20.278 -0.624,-41.047 1.071,-61.391 0.838,-10.055 -0.757,-20.315 0.357,-30.339 1.507,-13.565 3.434,-27.247 5.354,-40.689 0.9,-6.299 -0.703,-12.947 0,-19.274 0.751,-6.758 2.456,-13.307 3.569,-19.988 1.283,-7.698 -0.812,-16.025 1.071,-23.557 0.248,-0.991 -0.453,-2.663 0,-3.569 1.105,-2.211 -6.424,-1.214 -8.566,-2.499 -4.531,-2.718 -14.13,-3.779 -17.133,-6.781 -2.129,-2.13 -2.482,-5.452 -4.283,-7.853 -0.895,-1.194 -2.804,-1.222 -3.212,-2.855 -0.282,-1.126 0.813,-0.754 1.071,-1.785 0.858,-3.432 0.558,-7.232 1.427,-10.708 0.956,-3.824 2.925,-7.554 3.57,-11.421 0.556,-3.34 -0.607,-7.96 2.141,-10.708 1.583,-1.582 5.262,0.401 7.139,0.714 5.601,0.933 12.054,-1.359 17.489,0 3.239,0.81 3.146,4.599 3.569,7.138 1.028,6.168 0.703,15.406 8.923,16.776 2.535,0.422 11.524,-1.936 12.136,-4.997 0.478,-2.391 -0.596,-6.55 -1.071,-8.923 -0.474,-2.369 1.268,-6.027 2.142,-8.209 0.098,-0.247 0.09,-0.714 0.356,-0.714 1.136,0 1.531,3.212 3.927,3.212 1.796,0 3.955,0.351 5.71,0 2.801,-0.56 8.615,-3.621 11.422,-2.498 1.493,0.597 1.071,5.471 1.071,6.781 0,8.326 -5.651,15.849 7.852,13.92 10.082,-1.44 2.137,-12.131 5.354,-15.348 2.701,-2.701 7.421,-0.972 11.065,-1.427 1.878,-0.235 3.899,-1.428 5.71,-1.428 2.69,0 2.323,5.881 1.785,7.495 -2.289,6.866 -3.594,17.066 6.782,14.991 10.374,-2.074 5.418,-10.737 6.781,-18.917 0.128,-0.768 -0.51,-3.772 0,-4.283 0.397,-0.397 1.416,1.957 1.785,2.142 1.369,0.684 3.576,0.237 4.997,0 3.111,-0.519 6.258,-1.743 9.28,-2.499 0.476,-0.119 1.208,-0.795 1.427,-0.357 0.103,0.206 -1.024,8.44 -0.713,9.994 1.8,9.004 2.771,29.302 -7.853,33.551 -2.359,0.944 -5.375,2.443 -7.852,2.856 -10.059,1.676 -19.97,-1.498 -23.2,11.421 -2.162,8.649 -3.364,17.124 -4.64,26.056 -1.64,11.478 -6.769,22.381 -8.209,33.907 -1.175,9.4 0.689,19.135 -0.357,28.554 -0.803,7.223 -1.06,14.528 -1.785,21.773 -1.484,14.843 -0.283,29.741 -1.428,44.615 -0.674,8.772 -2.141,17.242 -2.141,26.056 0,7.803 -0.195,15.606 1.071,23.2 0.252,1.517 -0.875,12.297 1.07,10.351"
   fill="none"
   fill-rule="evenodd"
   opacity="1"
   stroke="#000000"
   stroke-linecap="round"
   stroke-linejoin="round"
   stroke-width="1"
   id="path103"
   style="fill:#ffffff;fill-opacity:1" />
<path
   d="m 146.88,290.893 c 0,2.375 66.565,7.764 74.24,3.927"
   fill="none"
   fill-rule="evenodd"
   opacity="1"
   stroke="#000000"
   stroke-linecap="round"
   stroke-linejoin="round"
   stroke-width="1"
   id="path105"
   style="fill:#ffffff;fill-opacity:1" />
<path
   d="m 206.843,346.574 c -5.621,2.81 -65.342,-1.503 -64.247,1.784"
   fill="none"
   fill-rule="evenodd"
   opacity="1"
   stroke="#000000"
   stroke-linecap="round"
   stroke-linejoin="round"
   stroke-width="1"
   id="path107"
   style="fill:#ffffff;fill-opacity:1" />
<path
   d="m 135.458,390.118 c -0.343,0.687 63.555,2.209 65.674,8.567"
   fill="none"
   fill-rule="evenodd"
   opacity="1"
   stroke="#000000"
   stroke-linecap="round"
   stroke-linejoin="round"
   stroke-width="1"
   id="path109"
   style="fill:#ffffff;fill-opacity:1" />
<path
   d="m 199.704,448.654 c -4.861,-2.431 -61.391,-8.617 -61.391,-3.212"
   fill="none"
   fill-rule="evenodd"
   opacity="1"
   stroke="#000000"
   stroke-linecap="round"
   stroke-linejoin="round"
   stroke-width="1"
   id="path111"
   style="fill:#ffffff;fill-opacity:1" />
<path
   d="m 135.815,475.423 c 7.922,-3.96 52.803,-2.688 61.748,1.785"
   fill="none"
   fill-rule="evenodd"
   opacity="1"
   stroke="#000000"
   stroke-linecap="round"
   stroke-linejoin="round"
   stroke-width="1"
   id="path113"
   style="fill:#ffffff;fill-opacity:1" />
<path
   d="m 159.015,474.71 c -1.169,-0.585 -2.499,38.445 -2.499,24.984"
   fill="none"
   fill-rule="evenodd"
   opacity="1"
   stroke="#000000"
   stroke-linecap="round"
   stroke-linejoin="round"
   stroke-width="1"
   id="path115"
   style="fill:#ffffff;fill-opacity:1" />
<path
   d="m 181.501,476.851 c 2.967,5.933 -0.714,20.775 -0.714,27.84"
   fill="none"
   fill-rule="evenodd"
   opacity="1"
   stroke="#000000"
   stroke-linecap="round"
   stroke-linejoin="round"
   stroke-width="1"
   id="path117"
   style="fill:#ffffff;fill-opacity:1" />
<path
   d="m 169.366,474.353 c 0,-6.939 1.527,-13.346 2.855,-19.988 0.583,-2.914 -0.279,-6.224 1.071,-8.923"
   fill="none"
   fill-rule="evenodd"
   opacity="1"
   stroke="#000000"
   stroke-linecap="round"
   stroke-linejoin="round"
   stroke-width="1"
   id="path119"
   style="fill:#ffffff;fill-opacity:1" />
<path
   d="m 148.307,441.159 c 0,-1.825 1.198,-3.514 1.428,-5.354 1.413,-11.302 0.371,-22.957 1.785,-34.265 0.565,-4.526 2.855,-9.431 2.855,-13.92"
   fill="none"
   fill-rule="evenodd"
   opacity="1"
   stroke="#000000"
   stroke-linecap="round"
   stroke-linejoin="round"
   stroke-width="1"
   id="path121"
   style="fill:#ffffff;fill-opacity:1" />
<path
   d="m 185.427,446.156 c -3.161,-1.581 -0.838,-7.464 -0.357,-10.351 1.323,-7.933 2.856,-16.165 2.856,-24.271 0,-5.073 -0.714,-9.856 -0.714,-14.991 0,-0.956 0.837,-5.82 1.785,-3.926"
   fill="none"
   fill-rule="evenodd"
   opacity="1"
   stroke="#000000"
   stroke-linecap="round"
   stroke-linejoin="round"
   stroke-width="1"
   id="path123"
   style="fill:#ffffff;fill-opacity:1" />
<path
   d="m 169.366,390.832 c 1.01,0 0.149,-6.851 0.357,-8.923 0.324,-3.24 1.026,-6.422 1.427,-9.637 0.827,-6.615 -3.399,-16.588 1.785,-21.772"
   fill="none"
   fill-rule="evenodd"
   opacity="1"
   stroke="#000000"
   stroke-linecap="round"
   stroke-linejoin="round"
   stroke-width="1"
   id="path125"
   style="fill:#ffffff;fill-opacity:1" />
<path
   d="m 159.015,350.857 c 0,-5.152 2.201,-10.473 2.855,-15.705 0.618,-4.939 -0.46,-10.09 0.357,-14.991 1.172,-7.028 2.215,-13.501 3.926,-20.344 0.487,-1.948 0.137,-3.843 1.071,-5.711"
   fill="none"
   fill-rule="evenodd"
   opacity="1"
   stroke="#000000"
   stroke-linecap="round"
   stroke-linejoin="round"
   stroke-width="1"
   id="path127"
   style="fill:#ffffff;fill-opacity:1" />
<path
   d="m 192.209,348.001 c -1.736,-3.472 -1.186,-8.714 -0.714,-12.492 1.191,-9.524 -0.144,-19.482 1.428,-28.911 0.438,-2.629 2.498,-5.57 2.498,-8.209"
   fill="none"
   fill-rule="evenodd"
   opacity="1"
   stroke="#000000"
   stroke-linecap="round"
   stroke-linejoin="round"
   stroke-width="1"
   id="path129"
   style="fill:#ffffff;fill-opacity:1" />
</g>
</svg>

<?xml version="1.0" encoding="UTF-8" standalone="no"?>
<!DOCTYPE svg PUBLIC "-//W3C//DTD SVG 1.1//EN" "http://www.w3.org/Graphics/SVG/1.1/DTD/svg11.dtd"
[
<!ATTLIST g
  xmlns:vectornator CDATA #FIXED "http://vectornator.io"
  vectornator:layerName CDATA #IMPLIED >
<!ATTLIST g
  xmlns:vectornator CDATA #FIXED "http://vectornator.io"
  vectornator:mask CDATA #IMPLIED >
<!ATTLIST text
  xmlns:vectornator CDATA #FIXED "http://vectornator.io"
  vectornator:width CDATA #IMPLIED >

<!ATTLIST path
  xmlns:vectornator CDATA #FIXED "http://vectornator.io"
  vectornator:blendMode CDATA #IMPLIED >
<!ATTLIST path
  xmlns:vectornator CDATA #FIXED "http://vectornator.io"
  vectornator:shadowColor CDATA #IMPLIED >
<!ATTLIST path
  xmlns:vectornator CDATA #FIXED "http://vectornator.io"
  vectornator:shadowOpacity CDATA #IMPLIED >
<!ATTLIST path
  xmlns:vectornator CDATA #FIXED "http://vectornator.io"
  vectornator:shadowRadius CDATA #IMPLIED >
<!ATTLIST path
  xmlns:vectornator CDATA #FIXED "http://vectornator.io"
  vectornator:shadowOffset CDATA #IMPLIED >
<!ATTLIST path
  xmlns:vectornator CDATA #FIXED "http://vectornator.io"
  vectornator:shadowAngle CDATA #IMPLIED >

<!ATTLIST image
  xmlns:vectornator CDATA #FIXED "http://vectornator.io"
  vectornator:blendMode CDATA #IMPLIED >
<!ATTLIST image
  xmlns:vectornator CDATA #FIXED "http://vectornator.io"
  vectornator:shadowColor CDATA #IMPLIED >
<!ATTLIST image
  xmlns:vectornator CDATA #FIXED "http://vectornator.io"
  vectornator:shadowOpacity CDATA #IMPLIED >
<!ATTLIST image
  xmlns:vectornator CDATA #FIXED "http://vectornator.io"
  vectornator:shadowRadius CDATA #IMPLIED >
<!ATTLIST image
  xmlns:vectornator CDATA #FIXED "http://vectornator.io"
  vectornator:shadowOffset CDATA #IMPLIED >
<!ATTLIST image
  xmlns:vectornator CDATA #FIXED "http://vectornator.io"
  vectornator:shadowAngle CDATA #IMPLIED >

<!ATTLIST g
  xmlns:vectornator CDATA #FIXED "http://vectornator.io"
  vectornator:blendMode CDATA #IMPLIED >
<!ATTLIST g
  xmlns:vectornator CDATA #FIXED "http://vectornator.io"
  vectornator:shadowColor CDATA #IMPLIED >
<!ATTLIST g
  xmlns:vectornator CDATA #FIXED "http://vectornator.io"
  vectornator:shadowOpacity CDATA #IMPLIED >
<!ATTLIST g
  xmlns:vectornator CDATA #FIXED "http://vectornator.io"
  vectornator:shadowRadius CDATA #IMPLIED >
<!ATTLIST g
  xmlns:vectornator CDATA #FIXED "http://vectornator.io"
  vectornator:shadowOffset CDATA #IMPLIED >
<!ATTLIST g
  xmlns:vectornator CDATA #FIXED "http://vectornator.io"
  vectornator:shadowAngle CDATA #IMPLIED >

<!ENTITY % SVG.filter.extra.content  "| feDropShadow" >
<!ELEMENT feDropShadow EMPTY>
<!ATTLIST feDropShadow
  xmlns:svg CDATA #FIXED "http://www.w3.org/Graphics/SVG/1.1/DTD/svg11.dtd"
  dx CDATA #IMPLIED>
<!ATTLIST feDropShadow
  xmlns:svg CDATA #FIXED "http://www.w3.org/Graphics/SVG/1.1/DTD/svg11.dtd"
  dy CDATA #IMPLIED>
<!ATTLIST feDropShadow
  xmlns:svg CDATA #FIXED "http://www.w3.org/Graphics/SVG/1.1/DTD/svg11.dtd"
  stdDeviation CDATA #IMPLIED>
<!ATTLIST feDropShadow
  xmlns:svg CDATA #FIXED "http://www.w3.org/Graphics/SVG/1.1/DTD/svg11.dtd"
  flood-opacity CDATA #IMPLIED>
<!ATTLIST feDropShadow
  xmlns:svg CDATA #FIXED "http://www.w3.org/Graphics/SVG/1.1/DTD/svg11.dtd"
  in CDATA #IMPLIED>
<!ATTLIST feDropShadow
  xmlns:svg CDATA #FIXED "http://www.w3.org/Graphics/SVG/1.1/DTD/svg11.dtd"
  result CDATA #IMPLIED>
<!ATTLIST feDropShadow
  xmlns:svg CDATA #FIXED "http://www.w3.org/Graphics/SVG/1.1/DTD/svg11.dtd"
  flood-color CDATA #IMPLIED>
]
>
<!-- Created with Vectornator (http://vectornator.io/) -->
<svg height="100%" stroke-miterlimit="10" style="fill-rule:nonzero;clip-rule:evenodd;stroke-linecap:round;stroke-linejoin:round;" version="1.1" viewBox="0 0 841.995 595.35" width="100%" xml:space="preserve" xmlns="http://www.w3.org/2000/svg" xmlns:vectornator="http://vectornator.io" xmlns:xlink="http://www.w3.org/1999/xlink">
<defs/>
<g id="Layer-1" vectornator:layerName="Layer 1">
<path d="M69.7838 554.839C70.7102 553.751 71.022 556.013 72.9961 555.731C75.3751 555.392 77.8455 553.996 80.1346 553.233C85.1859 551.549 90.9646 551.211 96.1962 552.519C100.489 553.592 106.626 551.792 110.83 551.091C120.037 549.557 130.348 550.355 139.384 552.162C141.99 552.683 144.612 554.286 147.236 554.661C165.191 557.226 183.381 549.917 201.132 552.876C206.048 553.695 211.186 554.195 216.123 555.018C221.02 555.834 226.244 554.563 231.114 555.374C233.182 555.719 234.122 557.608 235.754 558.587C239.148 560.623 241.811 557.282 244.32 556.445C245.943 555.904 243.976 558.221 246.105 556.802C246.302 556.67 246.162 556.319 246.105 556.088C245.674 554.368 244.291 555.288 243.963 554.304C243.712 553.55 244.354 548.404 243.963 546.451C242.77 540.486 241.123 532.19 236.468 527.534C233.079 524.146 227.659 522.214 224.689 518.254C223.149 516.2 222.136 513.56 220.406 511.83C213.596 505.02 205.607 507.162 197.206 505.762C191.941 504.884 186.769 502.945 181.501 502.193C172.236 500.869 163.004 504.763 154.018 505.762C147.388 506.499 140.068 506.129 133.673 508.26C124.814 511.214 118.086 516.556 110.116 521.11C102.327 525.56 94.7084 530.795 87.63 536.457C83.1478 540.043 77.7991 543.076 73.71 547.165C73.5804 547.295 67.6876 557.301 69.7838 554.839Z" fill="none" fill-rule="evenodd" opacity="1" stroke="#000000" stroke-linecap="round" stroke-linejoin="round" stroke-width="1"/>
<path d="M136.886 505.405C136.34 505.678 135.406 506.917 134.744 506.476C133.45 505.613 133.47 490.813 133.673 488.987C135.926 468.709 133.049 447.94 134.744 427.596C135.582 417.541 133.987 407.281 135.101 397.257C136.608 383.692 138.535 370.01 140.455 356.568C141.355 350.269 139.752 343.621 140.455 337.294C141.206 330.536 142.911 323.987 144.024 317.306C145.307 309.608 143.212 301.281 145.095 293.749C145.343 292.758 144.642 291.086 145.095 290.18C146.2 287.969 138.671 288.966 136.529 287.681C131.998 284.963 122.399 283.902 119.396 280.9C117.267 278.77 116.914 275.448 115.113 273.047C114.218 271.853 112.309 271.825 111.901 270.192C111.619 269.066 112.714 269.438 112.972 268.407C113.83 264.975 113.53 261.175 114.399 257.699C115.355 253.875 117.324 250.145 117.969 246.278C118.525 242.938 117.362 238.318 120.11 235.57C121.693 233.988 125.372 235.971 127.249 236.284C132.85 237.217 139.303 234.925 144.738 236.284C147.977 237.094 147.884 240.883 148.307 243.422C149.335 249.59 149.01 258.828 157.23 260.198C159.765 260.62 168.754 258.262 169.366 255.201C169.844 252.81 168.77 248.651 168.295 246.278C167.821 243.909 169.563 240.251 170.437 238.069C170.535 237.822 170.527 237.355 170.793 237.355C171.929 237.355 172.324 240.567 174.72 240.567C176.516 240.567 178.675 240.918 180.43 240.567C183.231 240.007 189.045 236.946 191.852 238.069C193.345 238.666 192.923 243.54 192.923 244.85C192.923 253.176 187.272 260.699 200.775 258.77C210.857 257.33 202.912 246.639 206.129 243.422C208.83 240.721 213.55 242.45 217.194 241.995C219.072 241.76 221.093 240.567 222.904 240.567C225.594 240.567 225.227 246.448 224.689 248.062C222.4 254.928 221.095 265.128 231.471 263.053C241.845 260.979 236.889 252.316 238.252 244.136C238.38 243.368 237.742 240.364 238.252 239.853C238.649 239.456 239.668 241.81 240.037 241.995C241.406 242.679 243.613 242.232 245.034 241.995C248.145 241.476 251.292 240.252 254.314 239.496C254.79 239.377 255.522 238.701 255.741 239.139C255.844 239.345 254.717 247.579 255.028 249.133C256.828 258.137 257.799 278.435 247.175 282.684C244.816 283.628 241.8 285.127 239.323 285.54C229.264 287.216 219.353 284.042 216.123 296.961C213.961 305.61 212.759 314.085 211.483 323.017C209.843 334.495 204.714 345.398 203.274 356.924C202.099 366.324 203.963 376.059 202.917 385.478C202.114 392.701 201.857 400.006 201.132 407.251C199.648 422.094 200.849 436.992 199.704 451.866C199.03 460.638 197.563 469.108 197.563 477.922C197.563 485.725 197.368 493.528 198.634 501.122C198.886 502.639 197.759 513.419 199.704 511.473" fill="none" fill-rule="evenodd" opacity="1" stroke="#000000" stroke-linecap="round" stroke-linejoin="round" stroke-width="1"/>
<path d="M146.88 290.893C146.88 293.268 213.445 298.657 221.12 294.82" fill="none" fill-rule="evenodd" opacity="1" stroke="#000000" stroke-linecap="round" stroke-linejoin="round" stroke-width="1"/>
<path d="M206.843 346.574C201.222 349.384 141.501 345.071 142.596 348.358" fill="none" fill-rule="evenodd" opacity="1" stroke="#000000" stroke-linecap="round" stroke-linejoin="round" stroke-width="1"/>
<path d="M135.458 390.118C135.115 390.805 199.013 392.327 201.132 398.685" fill="none" fill-rule="evenodd" opacity="1" stroke="#000000" stroke-linecap="round" stroke-linejoin="round" stroke-width="1"/>
<path d="M199.704 448.654C194.843 446.223 138.313 440.037 138.313 445.442" fill="none" fill-rule="evenodd" opacity="1" stroke="#000000" stroke-linecap="round" stroke-linejoin="round" stroke-width="1"/>
<path d="M135.815 475.423C143.737 471.463 188.618 472.735 197.563 477.208" fill="none" fill-rule="evenodd" opacity="1" stroke="#000000" stroke-linecap="round" stroke-linejoin="round" stroke-width="1"/>
<path d="M159.015 474.71C157.846 474.125 156.516 513.155 156.516 499.694" fill="none" fill-rule="evenodd" opacity="1" stroke="#000000" stroke-linecap="round" stroke-linejoin="round" stroke-width="1"/>
<path d="M181.501 476.851C184.468 482.784 180.787 497.626 180.787 504.691" fill="none" fill-rule="evenodd" opacity="1" stroke="#000000" stroke-linecap="round" stroke-linejoin="round" stroke-width="1"/>
<path d="M169.366 474.353C169.366 467.414 170.893 461.007 172.221 454.365C172.804 451.451 171.942 448.141 173.292 445.442" fill="none" fill-rule="evenodd" opacity="1" stroke="#000000" stroke-linecap="round" stroke-linejoin="round" stroke-width="1"/>
<path d="M148.307 441.159C148.307 439.334 149.505 437.645 149.735 435.805C151.148 424.503 150.106 412.848 151.52 401.54C152.085 397.014 154.375 392.109 154.375 387.62" fill="none" fill-rule="evenodd" opacity="1" stroke="#000000" stroke-linecap="round" stroke-linejoin="round" stroke-width="1"/>
<path d="M185.427 446.156C182.266 444.575 184.589 438.692 185.07 435.805C186.393 427.872 187.926 419.64 187.926 411.534C187.926 406.461 187.212 401.678 187.212 396.543C187.212 395.587 188.049 390.723 188.997 392.617" fill="none" fill-rule="evenodd" opacity="1" stroke="#000000" stroke-linecap="round" stroke-linejoin="round" stroke-width="1"/>
<path d="M169.366 390.832C170.376 390.832 169.515 383.981 169.723 381.909C170.047 378.669 170.749 375.487 171.15 372.272C171.977 365.657 167.751 355.684 172.935 350.5" fill="none" fill-rule="evenodd" opacity="1" stroke="#000000" stroke-linecap="round" stroke-linejoin="round" stroke-width="1"/>
<path d="M159.015 350.857C159.015 345.705 161.216 340.384 161.87 335.152C162.488 330.213 161.41 325.062 162.227 320.161C163.399 313.133 164.442 306.66 166.153 299.817C166.64 297.869 166.29 295.974 167.224 294.106" fill="none" fill-rule="evenodd" opacity="1" stroke="#000000" stroke-linecap="round" stroke-linejoin="round" stroke-width="1"/>
<path d="M192.209 348.001C190.473 344.529 191.023 339.287 191.495 335.509C192.686 325.985 191.351 316.027 192.923 306.598C193.361 303.969 195.421 301.028 195.421 298.389" fill="none" fill-rule="evenodd" opacity="1" stroke="#000000" stroke-linecap="round" stroke-linejoin="round" stroke-width="1"/>
</g>
</svg>
